X: 17453
T: Highlanders, The
R: strathspey
M: 4/4
K: Amixolydian
A2 e2 (3fed {f}e>d|(3cBA e>^g a>e (3cBA|G2 (c<d) (3edB (c<d)|(3BAG B>d g<d B<G|
A2 e2 (3fed {f}e>d|(3cBA c>e a>e c>A|(3agf (3gfe (3fed (3ed=c|(3BAG B>d (3gfe (3dcB|
A2 e>d c<e A<e|c<e A>^g a>e c>B|A2 e>d c<e A>c|(3BAG B>d g<d B<G|
A2 e>d c<e A>d|(3cBA c>e a>e c>A|(3agf (3gfe (3fed (3ed=c|(3BAG B>d g<d B<G|
a2 c/B/c a2 {cB}c<a|A2 c>e a>e c>A|a2 f>a g2 d>=c|(3BAG B>d g<d B<G|
a2 c/B/c a2 {cB}c<a|A2 c>e a>e c>A|(3agf (3gfe (3fed (3ed=c|(3BAG B>d (3gfe (3dcB|

